X:1
T:Prélude
T:5 Préludes
T: 5 Préludes 
T: from: "Choral-Vorspiele für die Orgel" (Berlin, 1790) Arrangements for Flute, Oboe and Cello 
T:Christian Friedrich Schale (1713-1800)
T:Arrangements by Felix Scharpf
T:twoflutes 2020 / Felix Scharpf / https://commons.wikimedia.org/wiki/File:Hintze_Kreuzberg_1829.JPG
T:twoflutes 2020 / Felix Scharpf / https://commons.wikimedia.org/wiki/File:Hintze_Kreuzberg_1829.JPG
T:twoflutes 2020 / Felix Scharpf / https://commons.wikimedia.org/wiki/File:Hintze_Kreuzberg_1829.JPG
T:twoflutes 2020 / Felix Scharpf / https://commons.wikimedia.org/wiki/File:Hintze_Kreuzberg_1829.JPG
T:twoflutes 2020 / Felix Scharpf / https://commons.wikimedia.org/wiki/File:Hintze_Kreuzberg_1829.JPG
T:twoflutes 2020 / Felix Scharpf / https://commons.wikimedia.org/wiki/File:Hintze_Kreuzberg_1829.JPG
T:twoflutes 2020 / Felix Scharpf / https://commons.wikimedia.org/wiki/File:Hintze_Kreuzberg_1829.JPG
C:Christian Friedrich Schale (1713-1800)
Z:twoflutes 2020 / Felix Scharpf / https://commons.wikimedia.org/wiki/File:Hintze_Kreuzberg_1829.JPG
%%score [ 1 2 3 ]
L:1/8
Q:1/8=74
M:2/4
K:D
V:1 treble nm="Flöte" snm="Fl."
V:2 treble nm="Oboe" snm="Ob."
V:3 bass nm="Violoncello" snm="Vc."
V:1
!mf!"^Un poco adagio (1)" (B/>d/) f2 B | (PB^A) z/ (g/e/A/) | B/aB/ c/(g/f/e/- | %3
 e/)(3(d/4c/4B/4)B!mp! d2- | d(c/d/) (eG) | (GF) a2- | a!<(!(g/f/) (gf!<)! | %7
!mf! .e/)(f/g/^g/ a/)(e/f/d/ |!p! .e/)(f/g/^g/ a/)!mp!(e/f/d/) | e!mf!(b ag) | (f^g/a/) (Ac) | %11
 (d/>f/) a2 d | (Pdc) z/ (g/e/c/) |!mp! d/(=ced)c/ | B/"_cresc."(d^de)=d/ | c/(e^ef)=e/ | %16
!mf! (d/g/)g- g/(^e/f) |"_dim." (c/f/)f- f/(^d/e- | e/)(g/f/e/ d/c/)(g/B/ | %19
 .^A/)(c/d/^e/ .f/)(c/d/B/) | .c/!p!(c/d/^e/ .f/)(c/d/B/) | c!mf!(g!>(! fe) | d(^e/f/) (F^A) | %23
"_rit." B4-!>)![Q:1/8=60][Q:1/8=50][Q:1/8=40] |!p! !fermata!B2 z2 |] %25
[K:G][M:3/8][Q:1/8=74]"^Un poco adagio (2)"!mf! d(b/g/d/B/) | c(a/f/d/c/) | .B/!>(!(d/e/=f/e/d/) | %28
 .c/!>)!!mp!(c/d/e/d/c/) | B/g(e/d/^c/) | (d/A/)(ac) | .B/B/(fA) | (G/^d/) (e2 | %33
 (^d/)B/A/.^G/) z/ (=d/ | ^c/)(A/G/.F/) z/ =c/ | (B/g/) z/ ec/ | (B/f/) z/ dB/- | %37
 B/A/(e/c/)(A/G/) | .F/!mf!(c/d/e/d/c/) | z/!mp! (B/c/d/c/B/) | z/!mf! (A/B/c/B/A/) | (Ge) z/ A/ | %42
 (B/.g/) z/!mp!!>(! (a/g/f/ | g3-!>)![Q:1/8=50][Q:1/8=40] |!p! g2) z |] %45
[K:Bb][M:3/4]!mf![Q:1/4=74]"^Largo (3)" (d>e) | G2 (^F>A) (G>B) | (A3 B/c/ B2) | %48
 A!<(!(e dc BA)!<)! |!>(! (BA/B/ A2)!>)! z2 |!mf! B(d/c/ Bf) z B | A(c/B/ Ae) z A | %52
 (Bf) .g (e2 d) | (ce dc .d)(b | .a)(e dc .d)(b | ag fe) z (e | df e.d) z (d | ce d.f) z A | %58
 (A2 B2)!mf! (f>g) | B2 (A>c) (B>d) | (c3 d/e/ d2) | .f f2 (e dc) | .=B!mp!(f!<(! gf ed) | %63
 .e e2 (d cB) | .A!<)!!mf!(g fe dc) | d.b z!mp! d2!>(! c- | c.a z (.c2 B)!>)! | %67
!p! .e!<(! c2 (c2 B!<)! |!mp! .A)!<(!(c BA .B)(g | .^f)(c BA .B)(g | ^fe dc)!<)! z!mf! (c | %71
 Bd cB) z!>(! (B | Ac Bd) z!>)! ^F |!p![Q:1/4=60] G6-[Q:1/4=50] |!pp![Q:1/4=40] G6 |] %75
[M:2/4]!mf![Q:1/4=70]"^Un poco largo (4)" (df df) | (ed) b2- | b(a/>g/) (fe) | (dc) z2 |!mp! B4- | %80
"_cresc." B(e d_d) | c4- |"_dim." c(f =e_e) |!mp! d a2 c | =B g2 B | B g2 B | A f2 A | %87
!<(! B B2 =B!<)! |!mf! c(b/g/) (f=e) |!>(! f(a/f/) (cB)!>)! |!p! A(b/g/) (f=e) | %91
!<(! f(a/f/) (cB)!<)! |!mf! (Ac Ac) | (BA)!>(! f2- | f(e/d/ e)d | (dc) z2!>)! |!mp! f(_a g^f) | %97
 g4- | g(b a^g) | a4 |!mf! b!>(! d2 f | e c2 a!>)! |!p! b _d2 f |!<(! e c2 e!<)! | %104
 d!mf!(g/f/) e2- | e(f/e/) d2- | d(e/d/) (cB) | (AB) z!>(! c | B2 A2!>)! |!mp! B4- |"_dim." B4- | %111
!p! B4- |[Q:1/4=50] B4-[Q:1/4=40] |!pp![Q:1/4=20] !fermata!B2 z2 |] %114
[M:2/4]!mp![Q:1/8=76]"^Largo (5)" G(d/>c/) BB | (3(B/A/B/A) z G | A(e/d/) (d/c/)(a/c/) | %117
 (B/>A/G) z2 | B(f/>e/ d)d | (d/>B/)c z (d | e/)(b/a/b/ c')e | (3(e/d/c/d) z3/4 (f/<g/f/4) | %122
 (f/>d/)e z3/4 (e/<f/e/4) | (e/>c/)d z3/4 (d/<e/d/4) | (d/>B/)c z3/4"_cresc." (c/<d/c/4) | %125
 (B/>g/)(=B/>g/) (c/>g/)(^c/>g/) |!mf! (^f/"_dim."a/) z/ a/ z/ (a/g/f/) | %127
 (g/b/) z/ b/ z/ (b/a/g/) |!mp! (^f/>!>(!d/)(g/>c/)[Q:1/8=60] (B[Q:1/8=50]A)!>)! | %129
!p! !fermata!G4 |] %130
V:2
 z4 | z4 | z4 | z2 z/!mf! (A/G/F/) | (G>F) (GE) | (ED) z ((d/=c/)) | B!<(!(e/d/) (ed)!<)! | %7
!mf! .c/ z/ z z/ (c/d/B/ |!p! .c/) z/ z z/ (c/d/B/) | c!mf!(c de) | d z z (G | F) z z2 | z4 | z4 | %14
 z4 | z4 | z4 |"_dim." z4 | z4 | z2 z/ (^A/B/^G/) | .^A z z/!mp! (A/B/^G/) | ^A!mf!(A Bc) | %22
 B z z!mp! E |!>(! D(E/D/ C/E/D/C/)!>)! |!p! !fermata!D2 z2 |][K:G][M:3/8]!mf! B z2 | A z2 | %27
 z/!>(! (B/c/d/c/B/) | .A/!>)!!mp!(A/B/c/B/A/) | G/ z z z/ | A(cA) | G(AF) | (E/F/) (G2 | %33
 F/) z/ z z/ (^G/ | A/) z/ z z/ (F/ | G/) z/ z/ cG/ | (F/B/) z/ z z/ | z3 | z/!mf! (A/B/c/B/A/) | %39
 z/!mp! (G/A/B/A/G/) | z/!mf! (F/G/A/G/F/) | (EG) z/ G/- | G/ z/ z/!mp!!>(! (c/B/A/ | %43
 .B/)(d/c/B/c/A/!>)! |!p! B2) z |][K:Bb][M:3/4] z2 | z2 (C2 D2) | z2 D2 D2 | (EG ^F4) | %49
 (G^F/G/ F2) z2 | F2 F2 F2 | E2 E2 E2 | F2 .B (c2 B) | (Ac BA .B)(d | .c)(c BA .B)(d | %55
 ce dc) z (c | Bd c.B) z B | B4 z E | (E2 D2) z2 | z2 (E2 F2) | z2 F2 F2 | z2 _A2 A2 | %62
 z!mp! (f!<(! ed c=B) | c2 z4 | z!<)!!mf! (e dc BA) | B.d z!mp! B2!>(! A- | A.c z (A2 G)!>)! | %67
!p! ._A!<(! A2 (A2 G!<)! |!mp! .^F)!<(!(A GF .G)B | .A(A G^F) .G(B | Ac BA)!<)! z!mf! (A | %71
 GB AG) z!>(! G | G4 z!>)!!mp! (c | B!>(! =B2 d2 c-!>)! |!pp! cA =B4) |][M:2/4]!mf! (Bd Bd) | %76
 (cB) d2- | d(c/>e/) (dc) | (BA) z2 |!mp! (F_A GF) |"_cresc." G4- | G(B A^G) |"_dim." A4- | %83
!mp! A c2 A | G =B2 G | G B2 G | F A2 F |!<(! F F2 F!<)! |!mf! =E(g/=e/) (dc) | %89
!>(! c(f/c/) (AG)!>)! |!p! F(g/=e/) (dc) |!<(! c(f/c/) (AG)!<)! |!mf! (FA FA) | (GF)!>(! z A | %94
 (B2 AB) | (BA) z2!>)! |!mp! B4- | B(e d_d) | c4- | c(f =e_e) |!mf! d!>(! B2 d | c A2 e!>)! | %102
!p! _d B2 d |!<(! c A2 A!<)! |!mf! B3 (c/B/) | A3 (B/A/) | G3 G | F2 z!>(! G | F2 F2!>)! | %109
!mp! .F"_dim.".F (G_A) | .G.G (FE) |!p! .F.F (G_A) | .G.G (FE |!pp! !fermata!F2) z2 |] %114
[M:2/4]!mp! B,(B/>A/) GG | (3(G/^F/G/F) z D | E(c/B/) (B/A/)(c/A/) | (G/>^F/G) z2 | F(d/>c/ B)B | %119
 (B/>G/)A z A | B e2 c | (3(c/B/A/B) z3/4 (d/<e/d/4) | (d/>=B/)c z3/4 (c/<d/c/4) | %123
 (c/>A/)B z3/4 (B/<c/B/4) | (B/>G/)A z3/4"_cresc." (A/<B/A/4) | (G/>B/)(G/>=B/) (G/>c/)(A/>^c/) | %126
!mf! (d/"_dim."^f/) z/ f/ z/ (c/B/A/) | (B/d/) z/ d/ z/ (d/c/B/) | %128
!mp! (A/>!>(!^F/)(G/>A/) D(D/>.C/)!>)! |!p! !fermata!B,4 |] %130
V:3
!mf! [B,D][B,D] [B,D][B,D] | [CE][CE] [CE][CE] | .[DF].[DF] [^A,F][A,F] | %3
 [B,F][B,D] z/!mp! (F,/E,/D,/) | (E,A,) C,C, | D,2 z F, |!<(! G,3 (^G,!<)! |!mf! A,) z z A, | %8
!p! A, z z A, | A,!mf!(G, F,G,) | A, z z A,, | D,[D,F,] [D,F,][D,F,] | [E,G,][E,G,] [E,G,][E,G,] | %13
!mp! .[F,A,].[F,A,] .[F,A,].[F,A,] |"^cresc." .[G,D].[G,B,] .[G,B,].[^G,B,] | %15
 .[A,E].[A,C] .[A,C].[^A,C] | [B,D][B,D] [A,C][A,C] |"_dim." [A,F][A,C] [G,B,][G,B,] | %18
 [G,B,][G,B,] [E,G,][E,G,] | F, z z F, | .F, z z F, | F,!mf!(E,!>(! D,E,) | F, z z F, | %23
 B,(G,/F,/ E,/!>)!G,/F,/E,/) |!p! !fermata![B,,F,]2 z2 |][K:G][M:3/8]!mf! G,3- | G, F,2 | G, z2 | %28
 D z2 | G,G,(A,/G,/ | F,) z/ (D,/F,/D,/) | G, z/ (^D,/B,/D,/) | E,>(C,B,,/^A,,/ | B,,) z E, | %34
 A,, z D, | G,,G,E, | D,D,D, | C,2 ^C, | D, z2 | D, z2 | D, z ^D, | (E,C,)^C, | D,!mp!D,,D, | %43
 G,,/(=F,/E,/D,/E,/C,/) |!p! D,2 z |][K:Bb][M:3/4] z2 | z2 (A,2 B,2) | z2 (^F,2 G,2) | %48
 (C,2 D,2) D,,2 | G,,2 D,2 z2 |!mf! D2 D2 D2 | A,2 C2 C2 | D2 z2 (E,=E, | F,4 =E,2 | F,4 =E,2 | %55
 F,4) A,,2 | B,,4 B,2 | (E,2 F,2) F,,2 | B,,4 z2 | z2 (C,2 D,2) | z2 (A,,2 B,,2) | z2 (D,2 F,2) | %62
 G,4 (G,,2 | C,2) (C,2 E,2 | F,4) F,,2 | B,,2 (=E,2!mp! F,2 | ^F,2) D,2 G,2 |!p! C,2 C,2 ^C,2 | %68
!mp! (D,4!<(! ^C,2 | D,4 ^C,2 | D,4)!<)! (^F,,2 | G,,4) G,2 |!>(! (C,2 D,2) D,,2!>)! |!p! G,,6- | %74
!pp! G,,6 |][M:2/4]!mf! B,,2 B,2 | (A,B,) z =E, | F,2 z A,, |!>(! B,,(F,/>G,/) F,!>)!E, |!mp! D,4 | %80
"_cresc." E,4 | =E,4 |"_dim." F,4 |!p! ^F,2 F,2 | F,2 F,2 | =E,2 E,2 | E,2 E,2 |!<(! D,2 _D,2!<)! | %88
!mf! C, z z (G, |!>(! A,) z z (=E,!>)! |!p! F,) z z (G, |!<(! A,) z z =E,!<)! |!mf! F,2 F,2 | %93
 (=E,F,)!>(! z _E, | D,2 C,B,, | F,,(F,/>G,/) (F,E,)!>)! |!mp! D,4 | E,4 | =E,4 | F,4 | %100
!mf! F,,2 F,2 | F,,2 F,2 |!p! F,,2 F,2 |!<(! F,,2 F,2!<)! |!mf! G,2 C,2 | F,2 B,,2 | (E,2 =E,2) | %107
 (E,D,) z!>(! E, | F,2 F,,2!>)! |!mp! B,,4- |"_dim." B,,4- |!p! B,,4- | B,,4- | %113
!pp! !fermata!B,,2 z2 |][M:2/4]!mp! G,G,, z ^C, | D,(D,/>C,/) D,B, | CC DD | %117
 G,!mf!(G,/>E,/) (F,/>D,/)(E,/>C,/) | D,B,, z =E, | F,(F,/>=E,/) F,F | EG, A,A, | %121
 B,(B,,/>B,/) B,,=B,, | C,(C/>B,/) A,F, | B,,(B,/>A,/) G,E, | A,,(A,/>G,/) ^F,D, | %125
 G,[F,G,] [E,G,][E,G,] |!mf! [D,A,].D, .D,.D, | .D,.D, .D,.D, | %128
!mp! (D,/>!>(!C,/)(B,,/>C,/) D,D,,!>)! |!p! !fermata!G,,4 |] %130

